X: 113
T: Trip to Athlone
M: 6/8
L: 1/8
R: Jig
K: D
ABA DED|dcA AGE|ABA ABc|dAB cde|
ABA D2d|dcA AGE|GFG Ade|1 fdc d2c :|2 fdc d2e||
f2d edc|Add cde|fed edc|ABc def|
~g3 age|dcA AGE|GFG Ade|1 fdc d2e :|2 fdc d2c||
